src/22/actions/view-media-title.svg

<svg xmlns="http://www.w3.org/2000/svg" viewBox="0 0 22 22"><path d="M5 3v2H3v3h2v6H3v3h2v2h14V3H5zm1 1h12v2H6V4zm0 3h12v11H6V7z" fill="currentColor" color="#5d656b"/></svg>

<svg xmlns="http://www.w3.org/2000/svg" viewBox="0 0 22 22">
  <defs id="defs3051">
    <style type="text/css" id="current-color-scheme">
      .ColorScheme-Text {
        color:#5d656b;
      }
      </style>
  </defs>
 <path 
    style="fill:currentColor;fill-opacity:1;stroke:none" 
    d="M 5 3 L 5 4 L 5 5 L 3 5 L 3 8 L 5 8 L 5 14 L 3 14 L 3 17 L 5 17 L 5 19 L 6 19 L 19 19 L 19 18 L 19 4 L 19 3 L 5 3 z M 6 4 L 18 4 L 18 6 L 6 6 L 6 5 L 6 4 z M 6 7 L 18 7 L 18 11 L 18 18 L 6 18 L 6 7 z "
	class="ColorScheme-Text"
    />  
</svg>
